X:60
T:FLWRER2- The Flowers of the Forest
S:Skene MS via Dauney's 'Ancient Scottish Melodies'
Q:1/4=60
L:1/4
M:C
K:D
dde/f/a/b/|a/f/e/dBA|dde/f/a/b/|a/f/e/d/d2:|\
A/B/ =cB/c/d|Af/e/ d/4B/4A3/2|AB/d/ba/f/|\
e3/2 d/4e/4d2|]

